X:75
T:Earl's Chair, The
R:reel
S:https://thesession.org/tunes/221
M:4/4
L:1/8
Z:b.maloney
K:Dmajor
B2Bd BAFA | B2Bd BAFA | AF (3FFF DF (3FFF | AFdB AFEF |!
B2Bd BAFA | B2Bd BAFA | AFAB dcdf |edef d3z :||!
e2ec d2Bd | efec dFAB | e2ec d3e | fedB ADFA |!
e2ef eB(3BBB | gB(3BBB defg |afbf afef | gedB ADFA :||

